.svelte-kit/output/client/library/social-虎扑.svg

<svg width="48" height="48" viewBox="0 0 48 48" fill="none" xmlns="http://www.w3.org/2000/svg">
<rect x="6" y="6" width="36" height="36" rx="8" fill="#E80D22"/>
<path d="M17.5 16.5V12L20 11.7812V13H23.5V15H20V16L26 15.5V20.5L23.75 21L23.5 18.5L20 19V20.4062L22.5 20V22.25L20 23V24L22.7188 23.3125V26L17.5 27.5V23.5L15 24L13.5 34.5L10.5 34L12.5 21H11.5L11 17L17.5 16.5Z" fill="white"/>
<path d="M16 29L15.5 35L18 35.3125L18.5 31L20.3125 30.2812L21 35.3125L27 32L26.8125 35H30.3438V30.2812L32 29L31.5 26.5L30.5 27.1562V24.5L32.2188 23.7812L32 21.2188L30.5 21.5V17H28.5L28 22.25L24 23.3125V26L27.7188 25L27.5 28.5L23.5 30.5L23 27L16 29Z" fill="white"/>
<path d="M32.5 34.5L33.5 17H35.6562L35.5 23.7812L39 27L37 29L35.6562 27.1562L35.5 34.5H32.5Z" fill="white"/>
<path d="M15.5 21.5V20L17.5 19.5V21L15.5 21.5Z" fill="#E80D22"/>
</svg>

<svg width="48" height="48" fill="none" xmlns="http://www.w3.org/2000/svg"><rect x="6" y="6" width="36" height="36" rx="8" fill="#E80D22"/><path d="M17.5 16.5V12l2.5-.219V13h3.5v2H20v1l6-.5v5l-2.25.5-.25-2.5-3.5.5v1.406L22.5 20v2.25L20 23v1l2.719-.688V26L17.5 27.5v-4L15 24l-1.5 10.5-3-.5 2-13h-1l-.5-4 6.5-.5Z" fill="#fff"/><path d="m16 29-.5 6 2.5.313.5-4.313 1.813-.719.687 5.032L27 32l-.188 3h3.532v-4.719L32 29l-.5-2.5-1 .656V24.5l1.719-.719L32 21.22l-1.5.281V17h-2l-.5 5.25-4 1.063V26l3.719-1-.219 3.5-4 2L23 27l-7 2ZM32.5 34.5l1-17.5h2.156l-.156 6.781L39 27l-2 2-1.344-1.844L35.5 34.5h-3Z" fill="#fff"/><path d="M15.5 21.5V20l2-.5V21l-2 .5Z" fill="#E80D22"/></svg>
